**kern	**kern	**kern
*staff3	*staff2	*staff1
*clefF4	*clefF4	*clefG2
*k[f#c#g#d#]	*k[f#c#g#d#]	*k[f#c#g#d#]
*c#:	*c#:	*c#:
*M2/4	*M2/4	*M2/4
4r	4r	8cc#\L
.	.	8dd#\J
=1	=1	=1
8r	2C#/	4ee\
8G#\ 8e\	.	.
8G#\L 8e\	.	[4gg#\
8G#\J 8e\	.	.
=2	=2	=2
8r	2C#/	4gg#\]
8G#\ 8e\	.	.
8G#\L 8e\	.	8ff#\L
8G#\J 8e\	.	8ee\J
=3	=3	=3
8r	2C#/	8dd#/L
8G#\ 8d#\	.	8a#/J
8G#\L 8d#\	.	4cc#\
8G#\J 8d#\	.	.
=4	=4	=4
8r	2C#/	4g#/
8G#\ 8e\	.	.
8G#\L 8e\	.	8cc#\L
8G#\J 8e\	.	8ee\J
=5	=5	=5
8r	2C#/	4.gg#\
8G#\ 8e\	.	.
8G#\L 8e\	.	.
8G#\J 8e\	.	8aa\
=6	=6	=6
8r	2C#/	8bb\L
8G#\ 8d#\	.	8cccn\J
8G#\L 8d#\	.	8aa\L
8G#\J 8d#\	.	8bb\J
=7	=7	=7
8r	2C#/	4.gg#\
8G#\ 8e\	.	.
8G#\L 8e\	.	.
8G#\J 8e\	.	8ee\
=8	=8	=8
!!linebreak:original
8r	2C#/	4gg#\
8G#\ 8e\	.	.
8G#\L 8e\	.	8aa\L
8G#\J 8e\	.	8gg#\J
=9	=9	=9
8r	2Dn\	4ff#\
8A\ 8f#\	.	.
8A\L 8f#\	.	[4fff#\
8A\J 8f#\	.	.
=10	=10	=10
8r	2Dn\	16fff#\LL]
.	.	16aa\
8A\ 8f#\	.	16bb\
.	.	16aa\JJ
8A\L 8f#\	.	16ccc#\LL
.	.	16gg#\
8A\J 8f#\	.	16ee\
.	.	16cc#\JJ
=11	=11	=11
8r	2D#\	4dd#\
8A\ 8f#\	.	.
8A\L 8f#\	.	[4bb\
8A\J 8f#\	.	.
=12	=12	=12
8r	2E\	4bb\]
8B\ 8g#\	.	.
8B\L 8g#\	.	16eee\LL
.	.	16bb\
8B\J 8g#\	.	16gg#\
.	.	16ee\JJ
=13	=13	=13
8r	2E\	4bb\
8B\ 8gn\	.	.
8B\L 8g\	.	16eee\LL
.	.	16bb\
8B\J 8g\	.	16gg#\
.	.	16ee\JJ
=14	=14	=14
2r	8r	4.ddn\
.	[8c#\ [8e\	.
.	4c#\] 4e\]	.
.	.	8ccn\
=15	=15	=15
!!linebreak:original
8r	2Fn\	4b-\
8d-\ 8fn\	.	.
8d-\L 8f\	.	[4ffn\
8d-\J 8f\ 8f\	.	.
=16	=16	=16
8r	2GG#/	4ff\]
8F#\ 8B#\	.	.
8F#\L 8B#\	.	4ee\
8F#\J 8B#\	.	.
=17	=17	=17
8r	2C#/	8ddn\
8E\ 8G#\	.	[4.cc#\
8E\L 8G#\	.	.
8E\J 8G#\	.	.
=18	=18	=18
8r	2C#/	4cc#\]
8E\ 8G#\	.	.
8E\L 8G#\	.	8cc#\L
8E\J 8G#\	.	8ee\J
=19	=19	=19
8r	2AA/	4.eee\
8E\ 8c#\	.	.
8E\L 8c#\	.	.
8E\J 8c#\	.	8ccc#\
=20	=20	=20
8r	2AA/	16cccn\LL
.	.	16bb\
8E\ 8dn\	.	16ffn\
.	.	16ddn\JJ
8E\L 8d\	.	16bb\LL
.	.	16gg#\
8E\J 8d\	.	16ee\
.	.	16ccn\JJ
=21	=21	=21
!!pagebreak:original
8r	2AA/	4ff#\
8E\ 8c#\	.	.
8E\L 8c#\	.	[4cc#\
8E\J 8c#\	.	.
*clefG2	*	*
=22	=22	=22
8r	4r	2cc#\]
8ee\ 8aa\	.	.
8ee\L 8aa\	8.e\L	.
8ee\J 8aa\	.	.
.	16dn\Jk	.
=23	=23	=23
8r	4cn\	2ccn\
8ee\ 8ggn\	.	.
8ee\L 8gg\	8.B-\L	.
8ee\J 8gg\	.	.
.	16A\Jk	.
=24	=24	=24
8r	4Gn\	2ccn\
8ee\ 8aa\	.	.
8ee\L 8aa\	4F#\	.
8ee\J 8aa\	.	.
=25	=25	=25
2r	[4E\	8r
.	.	8ccn\
.	8E\]	8ee\L
.	8r	8bb\J
*	*clefG2	*
=26	=26	=26
2r	8r	4.ggn\
.	24a\LL	.
.	24b-\	.
.	24ccn\JJ	.
.	[4b-\	.
.	.	24ff#\LL
.	.	24gg\
.	.	24aa\JJ
=27	=27	=27
!!linebreak:original
2r	8b-\L]	16bb-\LL
.	.	16ggn\
.	8b-\J 8ccn\	16aa\
.	.	16ff#\JJ
.	8b-\L	16bb-\LL
.	.	16gg\
.	8b-\J 8cc\	16aa\
.	.	16ff#\JJ
=28	=28	=28
2r	8b-\L 8dd-\	[4ddd-\
.	8dd-\J 8bb-\	.
.	4r	16ddd-\LL]
.	.	16fffn\
.	.	16dddn\
.	.	16bb-\JJ
=29	=29	=29
8r	2d-/	4r
8f#/ 8b-/	.	.
8f#/L 8b-/	.	8.ffn\L
8f#/J 8b-/	.	.
.	.	16ggn\Jk
=30	=30	=30
8r	2e-/	4.aa-\
8fn/ 8b-/	.	.
8f/L 8b-/	.	.
8f/J 8b-/	.	8gg-\
=31	=31	=31
!!linebreak:original
2r	2e-/ 2fn/ 2b-/	16r
.	.	16cccn\LL
.	.	16eee\
.	.	16ccc\JJ
.	.	16r
.	.	16ccc-\LL
.	.	16eee-\
.	.	16ccc-\JJ
=32	=32	=32
8r	2d-/	4r
8fn/ 8b-/	.	.
8f/L 8b-/	.	8.ffn\L
8f/J 8b-/	.	.
.	.	16ggn\Jk
=33	=33	=33
8r	2e-/	4.aa-\
8fn/ 8b-/	.	.
8f/L 8b-/	.	.
[8f/J [8b-/	.	8gg-\
=34	=34	=34
2f/] 2b-/]	2e-/	16r
.	.	16cccn\LL
.	.	16eeee\
.	.	16ccccn\JJ
.	.	16r
.	.	16eee-\LL
.	.	16eeee-\
.	.	16cccc-\JJ
=35	=35	=35
!!linebreak:original
8r	2d-/	8r
8fn/ 8b-/	.	4eee\
8f/L 8b-/	.	.
8f/J 8b-/	.	8ddd#\
=36	=36	=36
8r	2e-/	4ccc#\
8fn/ 8b-/	.	.
8f/L 8b-/	.	4gg#\
8f/J 8b-/	.	.
=37	=37	=37
8r	2d-/	2ggg#\
8fn/ 8b-/	.	.
8f/L 8b-/	.	.
8f/J 8b-/	.	.
=38	=38	=38
8r	2e-/	2gg#\
8fn/ 8b-/	.	.
8f/L 8b-/	.	.
8f/J 8b-/	.	.
=39	=39	=39
8r	2c#/	2gg#\
8e/ 8g#/	.	.
8e/L 8g#/	.	.
8e/J 8g#/	.	.
=40	=40	=40
8r	2c#/	2gg#\
8e/ 8g#/	.	.
8e/L 8g#/	.	.
8e/J 8g#/	.	.
=41	=41	=41
8r	2c#/	2gg#\
8d#/ 8f#/	.	.
8d#/L 8f#/	.	.
8d#/J 8f#/	.	.
=42	=42	=42
!!pagebreak:original
8r	2c#/	2g#/
8e/	.	.
8e/L	.	.
8e/J	.	.
*clefF4	*clefF4	*
=43	=43	=43
8r	4.Fn\	2g#/
8c#\ 8e\	.	.
4c#\ 4e\	.	.
.	8Gn\	.
=44	=44	=44
8r	4G#\	2g#/
8c#\ 8e\	.	.
8r	4C#/	.
8c#\ 8e\	.	.
=45	=45	=45
8r	4.F#\	2g#/
8c#\ 8e\	.	.
4c#\ 4e\	.	.
.	8Gn\	.
=46	=46	=46
8r	4G#\	2g#/
8c#\ 8e\	.	.
4r	[4C#/	.
=47	=47	=47
8r	2C#/]	2ee#\
8G#\ 8e#\	.	.
8G#\L 8e#\	.	.
8G#\J 8e#\	.	.
=48	=48	=48
8r	2GG#/	2dd#\
8F#\ 8B#\	.	.
8F#\L 8B#\	.	.
8F#\J 8B#\	.	.
*	*clefG2	*
=49	=49	=49
!!linebreak:original
*	*clefG2	*
2r	4r	8r
.	.	16bb\LL
.	.	16ggn\JJ
.	8r	4ddn\
.	8fn/ 8gn/	.
=50	=50	=50
2r	4.fn/ 4.gn/	8r
.	.	16aa\LL
.	.	16ffn\JJ
.	.	[4ccn\
.	8f/ 8g/	.
=51	=51	=51
2r	[2fn/ [2gn/	4cc\]
.	.	4ee\
=52	=52	=52
2r	2G#/ 2f/] 2g/]	4ggn\
.	.	4ee\
*	*clefF4	*
=53	=53	=53
8r	2C#/	2cc#\
8G#\ 8e\	.	.
8G#\L 8e\	.	.
8G#\J 8e\	.	.
=54	=54	=54
8r	2C#/	2ccc#\
8G#\ 8e\	.	.
8G#\L 8e\	.	.
8G#\J 8e\	.	.
=55	=55	=55
8r	[2C#/	16ccc#\LL
.	.	16eee\
8Gn\ 8dn\	.	16ccc#\
.	.	16gg#\JJ
8G\L 8d\	.	[4ccc#\
8G\J 8d\	.	.
=56	=56	=56
!!linebreak:original
2r	16C#/LL]	2ccc#\_
.	16BB/	.
.	16C#/	.
.	16Dn/JJ	.
.	16B-\LL	.
.	16Gn\	.
.	16E-\	.
.	16AA\JJ	.
=57	=57	=57
2r	4EE/	2ccc#\]
.	4DD#/	.
=58	=58	=58
8r	2CC#/	[2ggg#\
8G#\ 8e\	.	.
8G#\L 8e\	.	.
8G#\J 8e\	.	.
=59	=59	=59
2r	2r	16ggg#\LL]
.	.	16bbb\
.	.	16aaa\
.	.	16ggg#\JJ
.	.	16cccn\LL
.	.	16dddn\
.	.	16eee\
.	.	16fff#\JJ
=60	=60	=60
8r	2CC#/	[2ggg#\
8G#\ 8e\	.	.
8G#\L 8e\	.	.
8G#\J 8e\	.	.
=61	=61	=61
!!linebreak:original
2r	2r	16ggg#\LL]
.	.	16bbb\
.	.	16ggg#\
.	.	16eee\JJ
.	.	16cccn\LL
.	.	16dddn\
.	.	16eee\
.	.	16fff#\JJ
=62	=62	=62
2r	2r	[2ggg#\
=63	=63	=63
2r	8EEE/ 8GGG#/	2ggg#\]
.	8r	.
.	4r	.
=64	=64	=64
2r	8CCC#/ 8GGG#/	8cccc#\
.	8r	8r
.	4r	4r
==	==	==
*-	*-	*-
